X:1
T:Title
L:1/8
M:4/4
K:Ab
V:1 treble nm="Grand Piano"
V:1
 z4 z2[Q:1/4=100] FG | A2 A2 A2 A2 | c2 BA G2 =EF | G2 G2 G4 | B2 AG F2 FG | A2 A2 A2 A2 | %6
 c2 BA G2 =EF | G2 G2 G4 | B2 AG F2 F2 | c2 cB d2 c2 | BAGA B2 E2 | B2 BA c2 B2 | AGFG A2 A2 | %13
 AA A2 A2 A2 | c2 BA G2 =EF | G2 G2 G4 | B2 AG F2 z2 |] %17

